X:3733
T: Lo Tour
O:england
M:3/8
L:1/16
K:C
g2|g2a2g2|e2ceg2|fedefa|g2e2c2|\
ggageg|ceg4|fedfdB|c4:|
|:G2|G2A2G2|e2eceg|fedBdf|e2c2G2|\
G2A2G2|e3ceg|fedfdB|c4:|


